public/home/mountain-1.svg

<svg width="1280" height="226" viewBox="0 0 1280 226" fill="none" xmlns="http://www.w3.org/2000/svg">
<path d="M254.226 2.01562C256.387 1.23868 258.171 0.905152 259.556 1.02344C271.852 2.07679 278.494 7.66868 284.767 14.0566C291.039 20.4443 297.046 27.7865 307.909 31.6387V31.6377C318.683 35.4614 330.888 35.7027 343.82 36.0303C356.806 36.3592 370.61 36.7715 384.849 40.8242C399.092 44.8752 416.261 54.304 432.896 63.4268C441.189 67.9752 449.341 72.4408 456.878 76.084C463.935 79.4952 470.508 82.2131 476.198 83.5977L477.324 83.8564C489.134 86.4126 495.954 85.4222 501.614 84.2314C507.214 83.0533 511.419 81.7604 518.322 83.4561H518.323C520.23 83.9235 524.764 84.4556 531.485 85.0508C538.245 85.6493 547.304 86.318 558.331 87.0439C580.386 88.4959 610.331 90.1797 645.537 92C715.95 95.6407 807.419 99.8276 898.913 103.791C1078.51 111.571 1258.25 118.493 1279 118.746V224.754H1V125.904C1.23525 125.8 1.53901 125.666 1.9082 125.502C2.8935 125.065 4.34646 124.422 6.2168 123.593C9.95774 121.935 15.369 119.536 22.0498 116.575C35.4113 110.653 53.8518 102.478 74.166 93.4707C114.794 75.4556 162.919 54.1073 192.906 40.7764C197.805 38.5989 203.673 34.9272 209.879 30.7031C216.088 26.4768 222.711 21.6448 229.085 17.1455C235.478 12.6332 241.63 8.44822 246.969 5.46094C249.637 3.96758 252.079 2.78756 254.226 2.01562Z" fill="url(#paint0_linear_2032_14)" stroke="url(#paint1_linear_2032_14)" stroke-width="2" stroke-linecap="round" stroke-linejoin="round"/>
<defs>
<linearGradient id="paint0_linear_2032_14" x1="266" y1="20.7542" x2="291.5" y2="233.254" gradientUnits="userSpaceOnUse">
<stop stop-color="#7E6F70"/>
<stop offset="1" stop-color="#2F292A"/>
</linearGradient>
<linearGradient id="paint1_linear_2032_14" x1="159.5" y1="-62.2458" x2="182.21" y2="150.23" gradientUnits="userSpaceOnUse">
<stop stop-color="white" stop-opacity="0.8"/>
<stop offset="1" stop-color="#999999" stop-opacity="0.09"/>
</linearGradient>
</defs>
</svg>

<svg xmlns="http://www.w3.org/2000/svg" width="1280" height="226" fill="none" viewBox="0 0 1280 226"><path fill="url(#a)" stroke="url(#b)" stroke-linecap="round" stroke-linejoin="round" stroke-width="2" d="M254.226 2.016c2.161-.777 3.945-1.11 5.33-.993 12.296 1.054 18.938 6.646 25.211 13.034 6.272 6.387 12.279 13.73 23.142 17.582v-.001c10.774 3.823 22.979 4.065 35.911 4.392 12.986.33 26.79.742 41.029 4.794 14.243 4.051 31.412 13.48 48.047 22.603 8.293 4.548 16.445 9.014 23.982 12.657 7.057 3.411 13.63 6.13 19.32 7.514l1.126.258c11.81 2.557 18.63 1.566 24.29.375 5.6-1.178 9.805-2.47 16.708-.775h.001c1.907.468 6.441 1 13.162 1.595 6.76.598 15.819 1.267 26.846 1.993 22.055 1.452 52 3.136 87.206 4.956 70.413 3.64 161.882 7.828 253.376 11.791 179.597 7.78 359.337 14.702 380.087 14.955v106.008H1v-98.85l.908-.402 4.309-1.909 15.833-7.018c13.361-5.922 31.802-14.097 52.116-23.104 40.628-18.015 88.753-39.364 118.74-52.695 4.899-2.177 10.767-5.849 16.973-10.073 6.209-4.226 12.832-9.058 19.206-13.558 6.393-4.512 12.545-8.697 17.884-11.684 2.668-1.493 5.11-2.673 7.257-3.445"/><defs><linearGradient id="a" x1="266" x2="291.5" y1="20.754" y2="233.254" gradientUnits="userSpaceOnUse"><stop stop-color="#7e6f70"/><stop offset="1" stop-color="#2f292a"/></linearGradient><linearGradient id="b" x1="159.5" x2="182.21" y1="-62.246" y2="150.23" gradientUnits="userSpaceOnUse"><stop stop-color="#fff" stop-opacity=".8"/><stop offset="1" stop-color="#999" stop-opacity=".09"/></linearGradient></defs></svg>
